!!!COM: lupe-fiasco
!!!OTL: the-show-goes-on
!!!RNB: hooktheoryid: nKexEbrYo_B
**kern	**text
*clefG2	*
*k[f#]	*
*M4/4	*
=1	=1
4r	G
4b	.
8b	.
8a	.
8g	.
[8dd	.
=2	=2
4dd]	D/F#
4ee	.
4b	.
4a	.
=3	=3
4g	Em
8b	.
8a	.
8b	.
8a	.
8g	.
[8dd	.
=4	=4
4dd]	D
4ee	.
4b	.
8a	.
8a	.
=5	=5
8g	C
8a	.
8b	.
8a	.
8b	.
8a	.
4g	.
=6	=6
8g	C
8a	.
8b	.
8a	.
8b	.
4a	.
8r	.
=7	=7
8g	D
8a	.
8b	.
8a	.
8b	.
4a	.
[8dd	.
=8	=8
4dd]	D
4ee	.
4b	.
4a	.
=9	=9
1r	.
*-	*-